X:11
T:The Flying Dutchman
C:James Hill
Z:robin.beech@mcgill.ca
B:The Fiddle Music of James Hill
R:hornpipe
M:4/4
L:1/8
K:G
Bc | edBG DGdc | BGDB, GDBG | cAec BGdB | AGFG A2 Bc |
d2 BG DGdc | BGDB, GDBG | Acec BAGF | A2 G2 G2 ::
dc | BGDB, GDBG | dBgd BGdB | cAec BGdB | AGFG A2 Bc |
d2 BG DGdc | BGDB, GDBG | Acec BAGF | A2 G2 G2 :|
